source/icons/crop.svg

<svg xmlns="http://www.w3.org/2000/svg" width="8" height="8" viewBox="0 0 8 8">
  <path d="M1 0v1h-1v1h1v5h5v1h1v-1h1v-1h-1v-4.5l1-1-.5-.5-1 1h-4.5v-1h-1zm1 2h3.5l-3.5 3.5v-3.5zm4 .5v3.5h-3.5l3.5-3.5z" />
</svg>

<svg xmlns="http://www.w3.org/2000/svg" width="8" height="8" viewBox="0 0 8 8"><path d="M1 0v1H0v1h1v5h5v1h1V7h1V6H7V1.5l1-1-.5-.5-1 1H2V0H1zm1 2h3.5L2 5.5V2zm4 .5V6H2.5L6 2.5z"/></svg>
